X:600
T:Chinese Breakdown
M:2/4
L:1/8
K:D
P:A
A|"D"dd BA|FF2A|dd BA|"A"c3A|cc BA|cc2B|"A7"A>A BA|F3A|
"D"dd BA|FF2E|"D7"D>D EF|"G"G3d|"Em"ee2d|"A"cc2B|"A7"A>A Bc|"D"d3||
P:B
e|"D"fa/f/ ed|ff3|fa/f/ ed|"A"c3e|aa2e|"A7"gg2e|c>ccB|A3d|
"D"fa/f/ ed|ff2e|"D7"d>d c=c|"G"B3d|"Em"ee2d|"A"cc2B|"A7"A>A Bc|"D"d3||



